static/img/device/installation-device1-bew2.svg

<svg width="139" height="331" viewBox="0 0 139 331" fill="none" xmlns="http://www.w3.org/2000/svg">
<path d="M138.78 0H0V330.65H138.78V0Z" fill="white"/>
<path d="M50.29 142.87V150.53" stroke="#231815" stroke-linecap="round" stroke-linejoin="round"/>
<path d="M80.05 321.35H98.7" stroke="#231815" stroke-linecap="round" stroke-linejoin="round"/>
<path d="M50.29 301.6H74.1" stroke="#231815" stroke-linecap="round" stroke-linejoin="round"/>
<path d="M104.65 301.6H128.47" stroke="#231815" stroke-linecap="round" stroke-linejoin="round"/>
<path d="M114.18 263.31H64.5701" stroke="#231815" stroke-linecap="round" stroke-linejoin="round"/>
<path d="M64.5701 243.46H114.18" stroke="#231815" stroke-linecap="round" stroke-linejoin="round"/>
<path d="M97.3101 233.54H81.4401" stroke="#231815" stroke-linecap="round" stroke-linejoin="round"/>
<path d="M81.4401 224.61H97.3101" stroke="#231815" stroke-linecap="round" stroke-linejoin="round"/>
<path d="M50.29 301.6V22.22" stroke="#231815" stroke-linecap="round" stroke-linejoin="round"/>
<path d="M59.61 146.93V91.0701" stroke="#231815" stroke-linecap="round" stroke-linejoin="round"/>
<path d="M60.6001 259.34V247.43" stroke="#231815" stroke-linecap="round" stroke-linejoin="round"/>
<path d="M61.2001 21.23V12.3" stroke="#231815" stroke-linecap="round" stroke-linejoin="round"/>
<path d="M80.05 321.35V307.56" stroke="#231815" stroke-linecap="round" stroke-linejoin="round"/>
<path d="M84.91 71.33V55.46" stroke="#231815" stroke-linecap="round" stroke-linejoin="round"/>
<path d="M93.8401 55.46V71.33" stroke="#231815" stroke-linecap="round" stroke-linejoin="round"/>
<path d="M98.7001 307.56V321.35" stroke="#231815" stroke-linecap="round" stroke-linejoin="round"/>
<path d="M111.2 154.87H67.55" stroke="#231815" stroke-linecap="round" stroke-linejoin="round"/>
<path d="M117.55 21.23V12.3" stroke="#231815" stroke-linecap="round" stroke-linejoin="round"/>
<path d="M118.15 247.43V259.34" stroke="#231815" stroke-linecap="round" stroke-linejoin="round"/>
<path d="M119.14 91.0701V146.93" stroke="#231815" stroke-linecap="round" stroke-linejoin="round"/>
<path d="M128.47 301.6V22.22" stroke="#231815" stroke-linecap="round" stroke-linejoin="round"/>
<path d="M67.55 83.1401H111.2" stroke="#231815" stroke-linecap="round" stroke-linejoin="round"/>
<path d="M50.29 22.22H60.21" stroke="#231815" stroke-linecap="round" stroke-linejoin="round"/>
<path d="M118.54 22.22H128.47" stroke="#231815" stroke-linecap="round" stroke-linejoin="round"/>
<path d="M115.57 10.3201H63.1801" stroke="#231815" stroke-linecap="round" stroke-linejoin="round"/>
<path d="M80.0501 307.56C80.0501 304.27 77.3801 301.61 74.1001 301.61" stroke="#231815" stroke-linecap="round" stroke-linejoin="round"/>
<path d="M81.44 224.61C78.97 224.61 76.98 226.61 76.98 229.07C76.98 231.53 78.98 233.53 81.44 233.53" stroke="#231815" stroke-linecap="round" stroke-linejoin="round"/>
<path d="M64.5701 243.46C62.3801 243.46 60.6001 245.24 60.6001 247.43" stroke="#231815" stroke-linecap="round" stroke-linejoin="round"/>
<path d="M60.6001 259.34C60.6001 261.53 62.3801 263.31 64.5701 263.31" stroke="#231815" stroke-linecap="round" stroke-linejoin="round"/>
<path d="M67.55 83.1401C63.17 83.1401 59.61 86.6901 59.61 91.0801" stroke="#231815" stroke-linecap="round" stroke-linejoin="round"/>
<path d="M59.61 146.93C59.61 151.31 63.16 154.87 67.55 154.87" stroke="#231815" stroke-linecap="round" stroke-linejoin="round"/>
<path d="M84.91 71.3301C84.91 73.8001 86.91 75.7901 89.37 75.7901C91.83 75.7901 93.83 73.7901 93.83 71.3301" stroke="#231815" stroke-linecap="round" stroke-linejoin="round"/>
<path d="M93.84 55.46C93.84 52.99 91.84 51 89.38 51C86.92 51 84.92 53 84.92 55.46" stroke="#231815" stroke-linecap="round" stroke-linejoin="round"/>
<path d="M63.1801 10.3201C62.0801 10.3201 61.2001 11.2101 61.2001 12.3001" stroke="#231815" stroke-linecap="round" stroke-linejoin="round"/>
<path d="M60.2101 22.22C60.7601 22.22 61.2001 21.78 61.2001 21.23" stroke="#231815" stroke-linecap="round" stroke-linejoin="round"/>
<path d="M104.65 301.6C101.36 301.6 98.7001 304.27 98.7001 307.55" stroke="#231815" stroke-linecap="round" stroke-linejoin="round"/>
<path d="M97.3101 233.54C99.7801 233.54 101.77 231.54 101.77 229.08C101.77 226.62 99.7701 224.62 97.3101 224.62" stroke="#231815" stroke-linecap="round" stroke-linejoin="round"/>
<path d="M114.18 263.31C116.37 263.31 118.15 261.53 118.15 259.34" stroke="#231815" stroke-linecap="round" stroke-linejoin="round"/>
<path d="M118.15 247.43C118.15 245.24 116.37 243.46 114.18 243.46" stroke="#231815" stroke-linecap="round" stroke-linejoin="round"/>
<path d="M119.14 91.0701C119.14 86.6901 115.59 83.1301 111.2 83.1301" stroke="#231815" stroke-linecap="round" stroke-linejoin="round"/>
<path d="M111.2 154.87C115.58 154.87 119.14 151.32 119.14 146.93" stroke="#231815" stroke-linecap="round" stroke-linejoin="round"/>
<path d="M117.55 12.3001C117.55 11.2001 116.66 10.3201 115.57 10.3201" stroke="#231815" stroke-linecap="round" stroke-linejoin="round"/>
<path d="M117.55 21.23C117.55 21.78 117.99 22.22 118.54 22.22" stroke="#231815" stroke-linecap="round" stroke-linejoin="round"/>
<path d="M14.18 65.0001L11.72 67.4301H10.88C10.54 67.4301 10.27 65.6201 10.27 63.3901C10.27 61.1601 10.54 59.3501 10.88 59.3501H11.72L14.18 61.7801L37.23 61.9601C37.53 61.9601 38 62.0301 38.28 62.1201L42.07 63.2401C42.35 63.3201 42.58 63.3901 42.58 63.3901C42.58 63.3901 42.35 63.4601 42.07 63.5401L38.28 64.6601C38 64.7401 37.53 64.8101 37.23 64.8201L14.18 65.0001Z" fill="white"/>
<mask id="mask0_614_978" style="mask-type:luminance" maskUnits="userSpaceOnUse" x="10" y="59" width="33" height="9">
<path d="M14.18 65.0001L11.72 67.4301H10.88C10.54 67.4301 10.27 65.6201 10.27 63.3901C10.27 61.1601 10.54 59.3501 10.88 59.3501H11.72L14.18 61.7801L37.23 61.9601C37.53 61.9601 38 62.0301 38.28 62.1201L42.07 63.2401C42.35 63.3201 42.58 63.3901 42.58 63.3901C42.58 63.3901 42.35 63.4601 42.07 63.5401L38.28 64.6601C38 64.7401 37.53 64.8101 37.23 64.8201L14.18 65.0001Z" fill="white"/>
</mask>
<g mask="url(#mask0_614_978)">
<path d="M15.5701 65C15.3601 65 15.0301 64.28 14.8401 63.39C14.6501 62.5 14.6701 61.78 14.8801 61.78" stroke="#9FA0A0" stroke-width="0.2" stroke-miterlimit="10"/>
<path d="M17.04 65C16.83 65 16.5 64.28 16.31 63.39C16.12 62.5 16.14 61.78 16.35 61.78" stroke="#9FA0A0" stroke-width="0.2" stroke-miterlimit="10"/>
<path d="M18.51 65C18.3 65 17.97 64.28 17.78 63.39C17.59 62.5 17.61 61.78 17.82 61.78" stroke="#9FA0A0" stroke-width="0.2" stroke-miterlimit="10"/>
<path d="M19.9801 65C19.7701 65 19.4401 64.28 19.2501 63.39C19.0601 62.5 19.0801 61.78 19.2901 61.78" stroke="#9FA0A0" stroke-width="0.2" stroke-miterlimit="10"/>
<path d="M21.4501 65C21.2401 65 20.9101 64.28 20.7201 63.39C20.5301 62.5 20.5501 61.78 20.7601 61.78" stroke="#9FA0A0" stroke-width="0.2" stroke-miterlimit="10"/>
<path d="M22.92 65C22.71 65 22.38 64.28 22.19 63.39C22 62.5 22.02 61.78 22.23 61.78" stroke="#9FA0A0" stroke-width="0.2" stroke-miterlimit="10"/>
<path d="M24.4 65C24.19 65 23.86 64.28 23.67 63.39C23.48 62.5 23.5 61.78 23.71 61.78" stroke="#9FA0A0" stroke-width="0.2" stroke-miterlimit="10"/>
<path d="M25.8701 65C25.6601 65 25.3301 64.28 25.1401 63.39C24.9501 62.5 24.9701 61.78 25.1801 61.78" stroke="#9FA0A0" stroke-width="0.2" stroke-miterlimit="10"/>
<path d="M27.3401 65C27.1301 65 26.8001 64.28 26.6101 63.39C26.4201 62.5 26.4401 61.78 26.6501 61.78" stroke="#9FA0A0" stroke-width="0.2" stroke-miterlimit="10"/>
<path d="M28.8101 65C28.6001 65 28.2701 64.28 28.0801 63.39C27.8901 62.5 27.9101 61.78 28.1201 61.78" stroke="#9FA0A0" stroke-width="0.2" stroke-miterlimit="10"/>
<path d="M30.28 65C30.07 65 29.74 64.28 29.55 63.39C29.36 62.5 29.38 61.78 29.59 61.78" stroke="#9FA0A0" stroke-width="0.2" stroke-miterlimit="10"/>
<path d="M31.7501 65C31.5401 65 31.2101 64.28 31.0201 63.39C30.8301 62.5 30.8501 61.78 31.0601 61.78" stroke="#9FA0A0" stroke-width="0.2" stroke-miterlimit="10"/>
<path d="M33.2201 65C33.0101 65 32.6801 64.28 32.4901 63.39C32.3001 62.5 32.3201 61.78 32.5301 61.78" stroke="#9FA0A0" stroke-width="0.2" stroke-miterlimit="10"/>
<path d="M34.6901 65C34.4801 65 34.1501 64.28 33.9601 63.39C33.7701 62.5 33.7901 61.78 34.0001 61.78" stroke="#9FA0A0" stroke-width="0.2" stroke-miterlimit="10"/>
<path d="M36.16 65C35.95 65 35.62 64.28 35.43 63.39C35.24 62.5 35.26 61.78 35.47 61.78" stroke="#9FA0A0" stroke-width="0.2" stroke-miterlimit="10"/>
<path d="M37.6301 65C37.4201 65 37.0901 64.28 36.9001 63.39C36.7101 62.5 36.7301 61.78 36.9401 61.78" stroke="#9FA0A0" stroke-width="0.2" stroke-miterlimit="10"/>
<path d="M39.1101 65C38.9001 65 38.5701 64.28 38.3801 63.39C38.1901 62.5 38.2101 61.78 38.4201 61.78" stroke="#9FA0A0" stroke-width="0.2" stroke-miterlimit="10"/>
<path d="M40.5801 65C40.3701 65 40.0401 64.28 39.8501 63.39C39.6601 62.5 39.6801 61.78 39.8901 61.78" stroke="#9FA0A0" stroke-width="0.2" stroke-miterlimit="10"/>
</g>
<path d="M14.18 65.0001L11.72 67.4301H10.88C10.54 67.4301 10.27 65.6201 10.27 63.3901C10.27 61.1601 10.54 59.3501 10.88 59.3501H11.72L14.18 61.7801L37.23 61.9601C37.53 61.9601 38 62.0301 38.28 62.1201L42.07 63.2401C42.35 63.3201 42.58 63.3901 42.58 63.3901C42.58 63.3901 42.35 63.4601 42.07 63.5401L38.28 64.6601C38 64.7401 37.53 64.8101 37.23 64.8201L14.18 65.0001Z" stroke="#231815" stroke-miterlimit="10"/>
<path d="M11.72 67.4301C11.38 67.4301 11.11 65.6201 11.11 63.3901C11.11 61.1601 11.38 59.3501 11.72 59.3501" stroke="#231815" stroke-width="0.2" stroke-miterlimit="10"/>
<path d="M14.1801 61.79V65" stroke="#231815" stroke-width="0.2" stroke-miterlimit="10"/>
<path d="M14.18 230.68L11.72 233.11H10.88C10.54 233.11 10.27 231.3 10.27 229.07C10.27 226.84 10.54 225.03 10.88 225.03H11.72L14.18 227.46L37.23 227.64C37.53 227.64 38 227.71 38.28 227.8L42.07 228.92C42.35 229 42.58 229.07 42.58 229.07C42.58 229.07 42.35 229.14 42.07 229.22L38.28 230.34C38 230.42 37.53 230.49 37.23 230.5L14.18 230.68Z" fill="white"/>
<mask id="mask1_614_978" style="mask-type:luminance" maskUnits="userSpaceOnUse" x="10" y="225" width="33" height="9">
<path d="M14.18 230.68L11.72 233.11H10.88C10.54 233.11 10.27 231.3 10.27 229.07C10.27 226.84 10.54 225.03 10.88 225.03H11.72L14.18 227.46L37.23 227.64C37.53 227.64 38 227.71 38.28 227.8L42.07 228.92C42.35 229 42.58 229.07 42.58 229.07C42.58 229.07 42.35 229.14 42.07 229.22L38.28 230.34C38 230.42 37.53 230.49 37.23 230.5L14.18 230.68Z" fill="white"/>
</mask>
<g mask="url(#mask1_614_978)">
<path d="M15.5701 230.68C15.3601 230.68 15.0301 229.96 14.8401 229.07C14.6501 228.18 14.6701 227.46 14.8801 227.46" stroke="#9FA0A0" stroke-width="0.2" stroke-miterlimit="10"/>
<path d="M17.04 230.68C16.83 230.68 16.5 229.96 16.31 229.07C16.12 228.18 16.14 227.46 16.35 227.46" stroke="#9FA0A0" stroke-width="0.2" stroke-miterlimit="10"/>
<path d="M18.51 230.68C18.3 230.68 17.97 229.96 17.78 229.07C17.59 228.18 17.61 227.46 17.82 227.46" stroke="#9FA0A0" stroke-width="0.2" stroke-miterlimit="10"/>
<path d="M19.9801 230.68C19.7701 230.68 19.4401 229.96 19.2501 229.07C19.0601 228.18 19.0801 227.46 19.2901 227.46" stroke="#9FA0A0" stroke-width="0.2" stroke-miterlimit="10"/>
<path d="M21.4501 230.68C21.2401 230.68 20.9101 229.96 20.7201 229.07C20.5301 228.18 20.5501 227.46 20.7601 227.46" stroke="#9FA0A0" stroke-width="0.2" stroke-miterlimit="10"/>
<path d="M22.92 230.68C22.71 230.68 22.38 229.96 22.19 229.07C22 228.18 22.02 227.46 22.23 227.46" stroke="#9FA0A0" stroke-width="0.2" stroke-miterlimit="10"/>
<path d="M24.4 230.68C24.19 230.68 23.86 229.96 23.67 229.07C23.48 228.18 23.5 227.46 23.71 227.46" stroke="#9FA0A0" stroke-width="0.2" stroke-miterlimit="10"/>
<path d="M25.8701 230.68C25.6601 230.68 25.3301 229.96 25.1401 229.07C24.9501 228.18 24.9701 227.46 25.1801 227.46" stroke="#9FA0A0" stroke-width="0.2" stroke-miterlimit="10"/>
<path d="M27.3401 230.68C27.1301 230.68 26.8001 229.96 26.6101 229.07C26.4201 228.18 26.4401 227.46 26.6501 227.46" stroke="#9FA0A0" stroke-width="0.2" stroke-miterlimit="10"/>
<path d="M28.8101 230.68C28.6001 230.68 28.2701 229.96 28.0801 229.07C27.8901 228.18 27.9101 227.46 28.1201 227.46" stroke="#9FA0A0" stroke-width="0.2" stroke-miterlimit="10"/>
<path d="M30.28 230.68C30.07 230.68 29.74 229.96 29.55 229.07C29.36 228.18 29.38 227.46 29.59 227.46" stroke="#9FA0A0" stroke-width="0.2" stroke-miterlimit="10"/>
<path d="M31.7501 230.68C31.5401 230.68 31.2101 229.96 31.0201 229.07C30.8301 228.18 30.8501 227.46 31.0601 227.46" stroke="#9FA0A0" stroke-width="0.2" stroke-miterlimit="10"/>
<path d="M33.2201 230.68C33.0101 230.68 32.6801 229.96 32.4901 229.07C32.3001 228.18 32.3201 227.46 32.5301 227.46" stroke="#9FA0A0" stroke-width="0.2" stroke-miterlimit="10"/>
<path d="M34.6901 230.68C34.4801 230.68 34.1501 229.96 33.9601 229.07C33.7701 228.18 33.7901 227.46 34.0001 227.46" stroke="#9FA0A0" stroke-width="0.2" stroke-miterlimit="10"/>
<path d="M36.16 230.68C35.95 230.68 35.62 229.96 35.43 229.07C35.24 228.18 35.26 227.46 35.47 227.46" stroke="#9FA0A0" stroke-width="0.2" stroke-miterlimit="10"/>
<path d="M37.6301 230.68C37.4201 230.68 37.0901 229.96 36.9001 229.07C36.7101 228.18 36.7301 227.46 36.9401 227.46" stroke="#9FA0A0" stroke-width="0.2" stroke-miterlimit="10"/>
<path d="M39.1101 230.68C38.9001 230.68 38.5701 229.96 38.3801 229.07C38.1901 228.18 38.2101 227.46 38.4201 227.46" stroke="#9FA0A0" stroke-width="0.2" stroke-miterlimit="10"/>
<path d="M40.5801 230.68C40.3701 230.68 40.0401 229.96 39.8501 229.07C39.6601 228.18 39.6801 227.46 39.8901 227.46" stroke="#9FA0A0" stroke-width="0.2" stroke-miterlimit="10"/>
</g>
<path d="M14.18 230.68L11.72 233.11H10.88C10.54 233.11 10.27 231.3 10.27 229.07C10.27 226.84 10.54 225.03 10.88 225.03H11.72L14.18 227.46L37.23 227.64C37.53 227.64 38 227.71 38.28 227.8L42.07 228.92C42.35 229 42.58 229.07 42.58 229.07C42.58 229.07 42.35 229.14 42.07 229.22L38.28 230.34C38 230.42 37.53 230.49 37.23 230.5L14.18 230.68Z" stroke="#231815" stroke-miterlimit="10"/>
<path d="M11.72 233.12C11.38 233.12 11.11 231.31 11.11 229.08C11.11 226.85 11.38 225.04 11.72 225.04" stroke="#231815" stroke-width="0.2" stroke-miterlimit="10"/>
<path d="M14.1801 227.47V230.68" stroke="#231815" stroke-width="0.2" stroke-miterlimit="10"/>
<path d="M45.23 229.08H88.97" stroke="white" stroke-width="3" stroke-miterlimit="10"/>
<path d="M45.23 229.08H83" stroke="#231815" stroke-miterlimit="10"/>
<path d="M80.1899 232.78L81.7599 229.08L80.1899 225.38L88.9699 229.08L80.1899 232.78Z" fill="#231815"/>
<path d="M45.23 63.3899H80.97" stroke="white" stroke-width="3" stroke-miterlimit="10"/>
<path d="M75.91 70.06L78.74 63.39L75.91 56.73L91.71 63.39L75.91 70.06Z" fill="white"/>
<path d="M45.23 63.3899H83" stroke="#231815" stroke-miterlimit="10"/>
<path d="M80.1899 67.0999L81.7599 63.3899L80.1899 59.6899L88.9699 63.3899L80.1899 67.0999Z" fill="#231815"/>
</svg>

<svg xmlns="http://www.w3.org/2000/svg" width="139" height="331" fill="none" viewBox="0 0 139 331"><path fill="#fff" d="M138.78 0H0v330.65h138.78z"/><path stroke="#231815" stroke-linecap="round" stroke-linejoin="round" d="M50.29 142.87v7.66M80.05 321.35H98.7M50.29 301.6H74.1M104.65 301.6h23.82M114.18 263.31H64.57M64.57 243.46h49.61M97.31 233.54H81.44M81.44 224.61h15.87M50.29 301.6V22.22M59.61 146.93V91.07M60.6 259.34v-11.91M61.2 21.23V12.3M80.05 321.35v-13.79M84.91 71.33V55.46M93.84 55.46v15.87M98.7 307.56v13.79M111.2 154.87H67.55M117.55 21.23V12.3M118.15 247.43v11.91M119.14 91.07v55.86M128.47 301.6V22.22M67.55 83.14h43.65M50.29 22.22h9.92M118.54 22.22h9.93M115.57 10.32H63.18M80.05 307.56c0-3.29-2.67-5.95-5.95-5.95M81.44 224.61c-2.47 0-4.46 2-4.46 4.46s2 4.46 4.46 4.46M64.57 243.46c-2.19 0-3.97 1.78-3.97 3.97M60.6 259.34c0 2.19 1.78 3.97 3.97 3.97M67.55 83.14a7.94 7.94 0 0 0-7.94 7.94M59.61 146.93a7.94 7.94 0 0 0 7.94 7.94M84.91 71.33c0 2.47 2 4.46 4.46 4.46s4.46-2 4.46-4.46M93.84 55.46c0-2.47-2-4.46-4.46-4.46s-4.46 2-4.46 4.46M63.18 10.32c-1.1 0-1.98.89-1.98 1.98M60.21 22.22c.55 0 .99-.44.99-.99M104.65 301.6c-3.29 0-5.95 2.67-5.95 5.95M97.31 233.54c2.47 0 4.46-2 4.46-4.46s-2-4.46-4.46-4.46M114.18 263.31c2.19 0 3.97-1.78 3.97-3.97M118.15 247.43c0-2.19-1.78-3.97-3.97-3.97M119.14 91.07a7.94 7.94 0 0 0-7.94-7.94M111.2 154.87a7.94 7.94 0 0 0 7.94-7.94M117.55 12.3c0-1.1-.89-1.98-1.98-1.98M117.55 21.23c0 .55.44.99.99.99"/><path fill="#fff" d="m14.18 65-2.46 2.43h-.84c-.34 0-.61-1.81-.61-4.04s.27-4.04.61-4.04h.84l2.46 2.43 23.05.18c.3 0 .77.07 1.05.16l3.79 1.12c.28.08.51.15.51.15s-.23.07-.51.15l-3.79 1.12c-.28.08-.75.15-1.05.16z"/><mask id="a" width="33" height="9" x="10" y="59" maskUnits="userSpaceOnUse" style="mask-type:luminance"><path fill="#fff" d="m14.18 65-2.46 2.43h-.84c-.34 0-.61-1.81-.61-4.04s.27-4.04.61-4.04h.84l2.46 2.43 23.05.18c.3 0 .77.07 1.05.16l3.79 1.12c.28.08.51.15.51.15s-.23.07-.51.15l-3.79 1.12c-.28.08-.75.15-1.05.16z"/></mask><g stroke="#9fa0a0" stroke-miterlimit="10" stroke-width=".2" mask="url(#a)"><path d="M15.57 65c-.21 0-.54-.72-.73-1.61s-.17-1.61.04-1.61M17.04 65c-.21 0-.54-.72-.73-1.61s-.17-1.61.04-1.61M18.51 65c-.21 0-.54-.72-.73-1.61s-.17-1.61.04-1.61M19.98 65c-.21 0-.54-.72-.73-1.61s-.17-1.61.04-1.61M21.45 65c-.21 0-.54-.72-.73-1.61s-.17-1.61.04-1.61M22.92 65c-.21 0-.54-.72-.73-1.61s-.17-1.61.04-1.61M24.4 65c-.21 0-.54-.72-.73-1.61s-.17-1.61.04-1.61M25.87 65c-.21 0-.54-.72-.73-1.61s-.17-1.61.04-1.61M27.34 65c-.21 0-.54-.72-.73-1.61s-.17-1.61.04-1.61M28.81 65c-.21 0-.54-.72-.73-1.61s-.17-1.61.04-1.61M30.28 65c-.21 0-.54-.72-.73-1.61s-.17-1.61.04-1.61M31.75 65c-.21 0-.54-.72-.73-1.61s-.17-1.61.04-1.61M33.22 65c-.21 0-.54-.72-.73-1.61s-.17-1.61.04-1.61M34.69 65c-.21 0-.54-.72-.73-1.61s-.17-1.61.04-1.61M36.16 65c-.21 0-.54-.72-.73-1.61s-.17-1.61.04-1.61M37.63 65c-.21 0-.54-.72-.73-1.61s-.17-1.61.04-1.61M39.11 65c-.21 0-.54-.72-.73-1.61s-.17-1.61.04-1.61M40.58 65c-.21 0-.54-.72-.73-1.61s-.17-1.61.04-1.61"/></g><path stroke="#231815" stroke-miterlimit="10" d="m14.18 65-2.46 2.43h-.84c-.34 0-.61-1.81-.61-4.04s.27-4.04.61-4.04h.84l2.46 2.43 23.05.18c.3 0 .77.07 1.05.16l3.79 1.12c.28.08.51.15.51.15s-.23.07-.51.15l-3.79 1.12c-.28.08-.75.15-1.05.16z"/><path stroke="#231815" stroke-miterlimit="10" stroke-width=".2" d="M11.72 67.43c-.34 0-.61-1.81-.61-4.04s.27-4.04.61-4.04M14.18 61.79V65"/><path fill="#fff" d="m14.18 230.68-2.46 2.43h-.84c-.34 0-.61-1.81-.61-4.04s.27-4.04.61-4.04h.84l2.46 2.43 23.05.18c.3 0 .77.07 1.05.16l3.79 1.12c.28.08.51.15.51.15s-.23.07-.51.15l-3.79 1.12c-.28.08-.75.15-1.05.16z"/><mask id="b" width="33" height="9" x="10" y="225" maskUnits="userSpaceOnUse" style="mask-type:luminance"><path fill="#fff" d="m14.18 230.68-2.46 2.43h-.84c-.34 0-.61-1.81-.61-4.04s.27-4.04.61-4.04h.84l2.46 2.43 23.05.18c.3 0 .77.07 1.05.16l3.79 1.12c.28.08.51.15.51.15s-.23.07-.51.15l-3.79 1.12c-.28.08-.75.15-1.05.16z"/></mask><g stroke="#9fa0a0" stroke-miterlimit="10" stroke-width=".2" mask="url(#b)"><path d="M15.57 230.68c-.21 0-.54-.72-.73-1.61s-.17-1.61.04-1.61M17.04 230.68c-.21 0-.54-.72-.73-1.61s-.17-1.61.04-1.61M18.51 230.68c-.21 0-.54-.72-.73-1.61s-.17-1.61.04-1.61M19.98 230.68c-.21 0-.54-.72-.73-1.61s-.17-1.61.04-1.61M21.45 230.68c-.21 0-.54-.72-.73-1.61s-.17-1.61.04-1.61M22.92 230.68c-.21 0-.54-.72-.73-1.61s-.17-1.61.04-1.61M24.4 230.68c-.21 0-.54-.72-.73-1.61s-.17-1.61.04-1.61M25.87 230.68c-.21 0-.54-.72-.73-1.61s-.17-1.61.04-1.61M27.34 230.68c-.21 0-.54-.72-.73-1.61s-.17-1.61.04-1.61M28.81 230.68c-.21 0-.54-.72-.73-1.61s-.17-1.61.04-1.61M30.28 230.68c-.21 0-.54-.72-.73-1.61s-.17-1.61.04-1.61M31.75 230.68c-.21 0-.54-.72-.73-1.61s-.17-1.61.04-1.61M33.22 230.68c-.21 0-.54-.72-.73-1.61s-.17-1.61.04-1.61M34.69 230.68c-.21 0-.54-.72-.73-1.61s-.17-1.61.04-1.61M36.16 230.68c-.21 0-.54-.72-.73-1.61s-.17-1.61.04-1.61M37.63 230.68c-.21 0-.54-.72-.73-1.61s-.17-1.61.04-1.61M39.11 230.68c-.21 0-.54-.72-.73-1.61s-.17-1.61.04-1.61M40.58 230.68c-.21 0-.54-.72-.73-1.61s-.17-1.61.04-1.61"/></g><path stroke="#231815" stroke-miterlimit="10" d="m14.18 230.68-2.46 2.43h-.84c-.34 0-.61-1.81-.61-4.04s.27-4.04.61-4.04h.84l2.46 2.43 23.05.18c.3 0 .77.07 1.05.16l3.79 1.12c.28.08.51.15.51.15s-.23.07-.51.15l-3.79 1.12c-.28.08-.75.15-1.05.16z"/><path stroke="#231815" stroke-miterlimit="10" stroke-width=".2" d="M11.72 233.12c-.34 0-.61-1.81-.61-4.04s.27-4.04.61-4.04M14.18 227.47v3.21"/><path stroke="#fff" stroke-miterlimit="10" stroke-width="3" d="M45.23 229.08h43.74"/><path stroke="#231815" stroke-miterlimit="10" d="M45.23 229.08H83"/><path fill="#231815" d="m80.19 232.78 1.57-3.7-1.57-3.7 8.78 3.7z"/><path stroke="#fff" stroke-miterlimit="10" stroke-width="3" d="M45.23 63.39h35.74"/><path fill="#fff" d="m75.91 70.06 2.83-6.67-2.83-6.66 15.8 6.66z"/><path stroke="#231815" stroke-miterlimit="10" d="M45.23 63.39H83"/><path fill="#231815" d="m80.19 67.1 1.57-3.71-1.57-3.7 8.78 3.7z"/></svg>
